flaticon/medical/arm-1.svg

<svg xmlns="http://www.w3.org/2000/svg" width="32" height="32" viewBox="0 0 24 24">
    <path d="M 12.003906 0.00390625 C 11.628906 0.00390625 11.261719 0.0234375 10.894531 0.0585938 L 10.894531 0.0507812 L 10.785156 0.0664062 C 10.757812 0.0703125 10.730469 0.0742188 10.707031 0.0742188 L 10.515625 0.0976562 C 10.503906 0.101562 10.496094 0.101562 10.488281 0.101562 C 10.316406 0.125 10.144531 0.148438 9.976562 0.179688 C 9.953125 0.183594 9.929688 0.1875 9.90625 0.191406 C 9.746094 0.21875 9.585938 0.25 9.429688 0.285156 C 9.390625 0.292969 9.351562 0.304688 9.3125 0.3125 C 9.171875 0.34375 9.03125 0.378906 8.894531 0.414062 C 8.824219 0.433594 8.757812 0.453125 8.691406 0.472656 C 8.582031 0.503906 8.476562 0.535156 8.367188 0.570312 C 8.257812 0.605469 8.148438 0.644531 8.039062 0.679688 C 7.976562 0.703125 7.914062 0.722656 7.851562 0.746094 C 5.894531 1.464844 4.148438 2.691406 2.785156 4.328125 C 2.777344 4.332031 2.777344 4.34375 2.773438 4.347656 C 1.046875 6.425781 0.0078125 9.09375 0.0078125 12 C 0.0078125 12.121094 0.0117188 12.238281 0.015625 12.359375 L 0 12.351562 L 0.0507812 12.980469 C 0.0507812 12.984375 0.0507812 12.988281 0.0507812 12.992188 C 0.0703125 13.195312 0.0898438 13.398438 0.117188 13.597656 C 0.121094 13.613281 0.121094 13.628906 0.125 13.644531 C 0.148438 13.832031 0.179688 14.015625 0.214844 14.203125 C 0.21875 14.230469 0.226562 14.261719 0.230469 14.289062 C 0.261719 14.457031 0.296875 14.617188 0.335938 14.78125 C 0.347656 14.828125 0.359375 14.875 0.371094 14.925781 C 0.40625 15.066406 0.445312 15.207031 0.488281 15.34375 C 0.503906 15.410156 0.523438 15.472656 0.542969 15.539062 C 0.578125 15.660156 0.621094 15.777344 0.664062 15.898438 C 0.722656 16.082031 0.792969 16.261719 0.863281 16.441406 C 0.894531 16.515625 0.921875 16.59375 0.957031 16.671875 C 1 16.777344 1.050781 16.882812 1.097656 16.988281 C 1.136719 17.066406 1.171875 17.148438 1.210938 17.230469 C 1.261719 17.332031 1.3125 17.433594 1.367188 17.535156 C 1.410156 17.613281 1.449219 17.691406 1.492188 17.769531 C 1.507812 17.800781 1.527344 17.835938 1.542969 17.871094 L 1.652344 18.0625 L 1.660156 18.0625 C 3.746094 21.609375 7.601562 23.996094 12.003906 23.996094 C 18.617188 23.996094 24 18.613281 24 12 C 24 5.386719 18.617188 0.00390625 12.003906 0.00390625 Z M 10.246094 0.945312 C 10.40625 1.660156 10.644531 2.105469 10.980469 2.332031 L 11.121094 2.429688 L 11.285156 2.394531 C 11.308594 2.390625 13.613281 1.917969 15.109375 3.191406 C 16.054688 3.992188 16.488281 5.335938 16.402344 7.183594 L 16.394531 7.363281 L 16.523438 7.488281 C 16.539062 7.5 18.066406 9.011719 18.421875 10.121094 C 19.449219 13.347656 16.894531 17.339844 16.867188 17.378906 L 16.796875 17.492188 L 16.804688 17.621094 C 16.804688 17.644531 16.824219 18.203125 16.371094 18.644531 C 15.917969 19.085938 15.109375 19.277344 14.03125 19.199219 C 13.386719 19.152344 12.722656 19.121094 12.078125 19.09375 C 9.394531 18.980469 6.617188 18.863281 4.65625 17.285156 L 4.527344 17.179688 L 4.359375 17.199219 C 4.347656 17.203125 3.300781 17.324219 2.136719 17.285156 C 2.125 17.261719 2.113281 17.238281 2.101562 17.210938 C 1.96875 16.964844 1.851562 16.71875 1.738281 16.464844 C 1.726562 16.433594 1.710938 16.402344 1.695312 16.367188 C 1.582031 16.105469 1.484375 15.835938 1.394531 15.566406 C 1.378906 15.519531 1.359375 15.46875 1.34375 15.421875 C 1.257812 15.148438 1.179688 14.867188 1.113281 14.585938 C 1.105469 14.550781 1.097656 14.515625 1.085938 14.480469 C 1.019531 14.175781 0.960938 13.871094 0.917969 13.5625 C 2.210938 14.082031 3.167969 14.585938 3.699219 15.023438 L 3.835938 15.140625 C 4.304688 15.535156 4.882812 16.019531 5.582031 16 C 5.917969 15.984375 6.289062 15.992188 6.675781 16 C 7.828125 16.019531 9.132812 16.042969 10.167969 15.5625 C 10.179688 15.558594 11.480469 14.988281 13.246094 14.796875 L 14.355469 14.675781 L 13.421875 14.066406 C 13.402344 14.050781 11.460938 12.757812 11.195312 11 C 11.074219 10.195312 11.332031 9.402344 11.960938 8.640625 C 12.40625 8.101562 12.503906 7.378906 12.214844 6.792969 C 12.03125 6.425781 11.726562 6.160156 11.335938 6.023438 C 11.128906 5.949219 10.898438 6.0625 10.828125 6.269531 C 10.753906 6.476562 10.863281 6.707031 11.070312 6.777344 C 11.269531 6.847656 11.40625 6.96875 11.496094 7.152344 C 11.648438 7.453125 11.589844 7.835938 11.347656 8.132812 C 10.707031 8.90625 10.382812 9.71875 10.371094 10.558594 C 10.03125 10.78125 9.636719 10.980469 9.203125 10.980469 C 8.984375 10.980469 8.804688 11.160156 8.804688 11.378906 C 8.804688 11.601562 8.984375 11.78125 9.203125 11.78125 C 9.683594 11.78125 10.109375 11.625 10.472656 11.429688 C 10.761719 12.613281 11.597656 13.566406 12.230469 14.136719 C 10.835938 14.394531 9.886719 14.8125 9.835938 14.835938 C 8.964844 15.238281 7.753906 15.21875 6.691406 15.199219 C 6.289062 15.191406 5.910156 15.1875 5.550781 15.199219 C 5.171875 15.199219 4.734375 14.847656 4.351562 14.527344 L 4.207031 14.40625 C 3.59375 13.898438 2.558594 13.355469 1.132812 12.785156 C 1.742188 12.726562 2.320312 12.5 2.808594 12.125 C 3.390625 12.570312 4.097656 12.796875 4.804688 12.796875 C 5.632812 12.796875 6.457031 12.492188 7.082031 11.886719 C 7.242188 11.734375 7.246094 11.480469 7.09375 11.320312 C 6.941406 11.164062 6.6875 11.160156 6.527344 11.3125 C 5.578125 12.226562 4.035156 12.226562 3.085938 11.3125 C 3.066406 11.292969 3.042969 11.285156 3.019531 11.269531 C 3 11.257812 2.980469 11.238281 2.957031 11.230469 C 2.933594 11.21875 2.90625 11.21875 2.878906 11.214844 C 2.855469 11.210938 2.832031 11.199219 2.808594 11.199219 C 2.78125 11.199219 2.757812 11.207031 2.734375 11.214844 C 2.707031 11.21875 2.679688 11.21875 2.65625 11.230469 C 2.632812 11.238281 2.613281 11.257812 2.59375 11.269531 C 2.570312 11.285156 2.546875 11.292969 2.527344 11.3125 C 2.066406 11.757812 1.453125 12 0.808594 11.996094 C 0.808594 9.207031 1.835938 6.65625 3.53125 4.691406 C 3.664062 4.535156 3.804688 4.386719 3.945312 4.238281 C 4.042969 4.136719 4.144531 4.035156 4.246094 3.9375 C 4.378906 3.808594 4.515625 3.683594 4.652344 3.5625 C 4.769531 3.464844 4.886719 3.363281 5.003906 3.269531 C 5.148438 3.152344 5.296875 3.042969 5.445312 2.933594 C 5.542969 2.863281 5.640625 2.792969 5.738281 2.722656 C 5.929688 2.597656 6.121094 2.476562 6.316406 2.359375 C 6.410156 2.304688 6.503906 2.25 6.601562 2.195312 C 6.816406 2.078125 7.03125 1.96875 7.253906 1.863281 C 7.328125 1.828125 7.40625 1.792969 7.484375 1.761719 C 7.730469 1.648438 7.984375 1.546875 8.238281 1.457031 C 8.285156 1.441406 8.328125 1.425781 8.371094 1.410156 C 8.976562 1.203125 9.601562 1.046875 10.246094 0.945312 Z M 2.617188 18.09375 C 3.367188 18.09375 4 18.042969 4.289062 18.011719 C 6.246094 19.507812 8.785156 19.742188 11.304688 19.859375 C 10.988281 20.5 10.640625 21.609375 10.902344 23.140625 C 9.375 22.992188 7.9375 22.535156 6.648438 21.832031 C 7.058594 21.683594 7.429688 21.394531 7.730469 20.984375 C 7.859375 20.804688 7.820312 20.554688 7.640625 20.425781 C 7.460938 20.296875 7.210938 20.335938 7.082031 20.515625 C 6.785156 20.921875 6.402344 21.148438 6.007812 21.148438 C 5.609375 21.148438 5.226562 20.921875 4.929688 20.515625 C 4.84375 20.394531 4.703125 20.34375 4.5625 20.355469 C 3.820312 19.695312 3.164062 18.933594 2.617188 18.09375 Z M 12.003906 23.195312 C 11.910156 23.195312 11.816406 23.191406 11.722656 23.1875 C 11.363281 21.402344 11.945312 20.28125 12.199219 19.902344 C 12.789062 19.925781 13.390625 19.953125 13.972656 19.996094 C 14.15625 20.007812 14.335938 20.015625 14.503906 20.015625 C 15.582031 20.015625 16.402344 19.742188 16.945312 19.203125 C 17.496094 18.660156 17.589844 18 17.601562 17.714844 C 18.023438 17.035156 20.242188 13.207031 19.183594 9.878906 C 18.832031 8.773438 17.609375 7.457031 17.210938 7.042969 C 17.269531 5.023438 16.738281 3.523438 15.628906 2.578125 C 14.109375 1.289062 12.007812 1.472656 11.335938 1.574219 C 11.253906 1.464844 11.144531 1.253906 11.042969 0.847656 C 11.363281 0.820312 11.679688 0.804688 12.003906 0.804688 C 18.179688 0.804688 23.199219 5.824219 23.199219 12 C 23.199219 18.171875 18.175781 23.195312 12.003906 23.195312 Z M 12.003906 23.195312"/>
    <path d="M 5.207031 10.402344 C 5.207031 10.621094 5.027344 10.800781 4.804688 10.800781 C 4.585938 10.800781 4.40625 10.621094 4.40625 10.402344 C 4.40625 10.179688 4.585938 10 4.804688 10 C 5.027344 10 5.207031 10.179688 5.207031 10.402344 Z M 5.207031 10.402344"/>
</svg>

<svg xmlns="http://www.w3.org/2000/svg" width="32" height="32" viewBox="0 0 24 24">
    <path d="M12.004.004c-.375 0-.742.02-1.11.055V.05l-.109.015c-.027.004-.055.008-.078.008l-.191.024c-.012.004-.02.004-.028.004-.172.023-.343.046-.511.078l-.07.011c-.16.028-.321.059-.477.094-.04.008-.078.02-.117.028-.141.03-.282.066-.418.101L8.69.473c-.109.03-.214.062-.324.097-.11.035-.219.075-.328.11-.062.023-.125.043-.187.066a11.953 11.953 0 0 0-5.067 3.582c-.008.004-.008.016-.012.02A11.937 11.937 0 0 0 .008 12c0 .121.004.238.008.36L0 12.351l.05.628v.012c.02.203.04.406.067.606.004.015.004.03.008.047.023.187.055.37.09.558.004.027.012.059.015.086.032.168.067.328.106.492l.035.145c.035.14.074.281.117.418.016.066.035.129.055.195.035.121.078.238.121.36.059.183.129.363.2.542.03.075.058.153.093.23.043.106.094.212.14.317.04.078.075.16.114.242.05.102.101.204.156.305.043.078.082.156.125.235.016.03.035.066.051.101l.11.192h.007c2.086 3.546 5.942 5.933 10.344 5.933C18.617 23.996 24 18.613 24 12S18.617.004 12.004.004zm-1.758.941c.16.715.399 1.16.734 1.387l.141.098.164-.035c.024-.004 2.328-.477 3.824.796.946.801 1.38 2.145 1.293 3.993l-.007.18.128.124c.016.012 1.543 1.524 1.899 2.633 1.027 3.227-1.527 7.219-1.555 7.258l-.07.113.008.13c0 .023.02.581-.434 1.023-.453.44-1.262.632-2.34.554a65.394 65.394 0 0 0-1.953-.105c-2.683-.114-5.46-.23-7.422-1.809l-.129-.105-.168.02c-.011.003-1.058.124-2.222.085a1.343 1.343 0 0 1-.035-.074c-.133-.246-.25-.492-.364-.746-.011-.031-.027-.063-.043-.098a9.884 9.884 0 0 1-.3-.8c-.016-.047-.036-.098-.051-.145a11.993 11.993 0 0 1-.23-.836 1.047 1.047 0 0 0-.028-.106c-.066-.304-.125-.609-.168-.918 1.293.52 2.25 1.024 2.781 1.461l.137.118c.469.394 1.047.879 1.746.859.336-.016.707-.008 1.094 0 1.152.02 2.457.043 3.492-.438.012-.003 1.312-.574 3.078-.765l1.11-.121-.934-.61c-.02-.015-1.961-1.308-2.227-3.066-.12-.805.137-1.598.766-2.36.445-.538.543-1.261.254-1.847a1.526 1.526 0 0 0-.88-.77.398.398 0 0 0-.507.247.396.396 0 0 0 .242.507c.2.07.336.192.426.375.152.301.094.684-.148.98-.641.774-.965 1.587-.977 2.427-.34.222-.734.421-1.168.421a.4.4 0 0 0 0 .801c.48 0 .906-.156 1.27-.351.289 1.183 1.125 2.136 1.757 2.707-1.394.258-2.343.675-2.394.699-.871.402-2.082.383-3.145.363a22.19 22.19 0 0 0-1.14 0c-.38 0-.817-.351-1.2-.672l-.144-.12c-.613-.509-1.648-1.052-3.074-1.622a3.255 3.255 0 0 0 1.676-.66c.582.445 1.289.672 1.996.672.828 0 1.652-.305 2.277-.91a.4.4 0 0 0 .012-.567.404.404 0 0 0-.567-.008 2.502 2.502 0 0 1-3.441 0c-.02-.019-.043-.027-.066-.042-.02-.012-.04-.032-.063-.04-.023-.011-.05-.011-.078-.015-.024-.004-.047-.016-.07-.016a.228.228 0 0 0-.075.016c-.027.004-.054.004-.078.015-.023.008-.043.028-.062.04-.024.015-.047.023-.067.043a2.441 2.441 0 0 1-1.718.683c0-2.789 1.027-5.34 2.722-7.305.133-.156.274-.304.414-.453a12.145 12.145 0 0 1 .707-.676c.118-.097.235-.199.352-.292.144-.118.293-.227.441-.336l.293-.211c.192-.125.383-.246.578-.364.094-.054.188-.109.286-.164.214-.117.43-.226.652-.332.074-.035.152-.07.23-.101.246-.114.5-.215.754-.305l.133-.047a11.15 11.15 0 0 1 1.875-.465zM2.617 18.094c.75 0 1.383-.051 1.672-.082 1.957 1.496 4.496 1.73 7.016 1.847-.317.641-.664 1.75-.403 3.282a11.112 11.112 0 0 1-4.254-1.309c.41-.148.782-.437 1.082-.848a.4.4 0 1 0-.648-.468c-.297.406-.68.632-1.074.632-.399 0-.781-.226-1.078-.632a.4.4 0 0 0-.367-.16 11.234 11.234 0 0 1-1.946-2.262zm9.387 5.101c-.094 0-.188-.004-.281-.008-.36-1.785.222-2.906.476-3.285.59.024 1.192.051 1.774.094.183.012.363.02.53.02 1.079 0 1.9-.274 2.442-.813.551-.543.645-1.203.657-1.488.421-.68 2.64-4.508 1.582-7.836-.352-1.106-1.575-2.422-1.973-2.836.059-2.02-.473-3.52-1.582-4.465-1.52-1.289-3.621-1.105-4.293-1.004-.082-.11-.191-.32-.293-.726.32-.028.637-.043.96-.043C18.18.805 23.2 5.825 23.2 12c0 6.172-5.023 11.195-11.195 11.195zm0 0"/>
    <path d="M5.207 10.402a.401.401 0 1 1-.802-.005.401.401 0 0 1 .802.005zm0 0"/>
</svg>
